proprietary/assets/icons/gebouwen/bakkerijketens.svg

<svg enable-background="new 0 0 64 64" height="64" viewBox="0 0 64 64" width="64" xmlns="http://www.w3.org/2000/svg"><path d="m0 0h64v64h-64z" fill="none"/><path d="m10 33.2v-1.2c0-1 .4-2 1.2-2.7l10-9.4-3.9-3.7c-.2-.2-.6-.2-.9 0l-15 14.2c-.3.2-.4.5-.4.9v.9c0 .4.3.6.6.6h2.5v13.2h9.9v-10h-1.2c-1.5 0-2.8-1.3-2.8-2.8zm52.6-2.9-15-14.2c-.2-.2-.6-.2-.9 0l-3.9 3.7 10 9.5c.8.7 1.2 1.7 1.2 2.7v1.2c0 1.5-1.3 2.8-2.8 2.8h-1.2v10h9.8v-13.2h2.5c.3 0 .6-.3.6-.6v-.9c.1-.4-.1-.7-.3-1zm-10.6 2.9v-1.2c0-.5-.2-.9-.5-1.2l-19-17.9c-.3-.3-.8-.3-1.1 0l-18.9 17.9c-.3.3-.5.7-.5 1.2v1.2c0 .4.4.8.8.8h3.2v16.9h32v-16.9h3.2c.4 0 .8-.4.8-.8zm-12.3 3.8c-1.6 1.7-5 4.4-8 5.7-9.3 5.1-12-1.5-6.9-7.7 3.7.1 5.7 1.8 6.3 2 .1-.1.1-.2-.2-.5-.3-.4-1.5-2-4.4-3.2.8-.7 1.6-1.4 2.5-2 3.9 0 6.2 1.7 6.7 2 .1-.1.1-.3-.2-.6-.5-.3-1.5-1.7-4.1-2.9 4-1.9 8-2.1 9.9.2 1.6 1.8.8 4.4-1.6 7z"/></svg>

<?xml version="1.0" encoding="utf-8"?>
<!-- Generator: Adobe Illustrator 22.1.0, SVG Export Plug-In . SVG Version: 6.00 Build 0)  -->
<!DOCTYPE svg PUBLIC "-//W3C//DTD SVG 1.1//EN" "http://www.w3.org/Graphics/SVG/1.1/DTD/svg11.dtd">
<svg version="1.1" xmlns="http://www.w3.org/2000/svg" xmlns:xlink="http://www.w3.org/1999/xlink" x="0px" y="0px" width="64px"
	 height="64px" viewBox="0 0 64 64" style="enable-background:new 0 0 64 64;" xml:space="preserve">
<style type="text/css">
	.st0{fill:none;}
</style>
<g id="Box">
	<rect class="st0" width="64" height="64"/>
</g>
<g id="Icon">
	<g>
		<g>
			<path d="M10,33.2V32c0-1,0.4-2,1.2-2.7l10-9.4l-3.9-3.7c-0.2-0.2-0.6-0.2-0.9,0l-15,14.2C1.1,30.6,1,30.9,1,31.3v0.9
				c0,0.4,0.3,0.6,0.6,0.6h2.5V46H14V36h-1.2C11.3,36,10,34.7,10,33.2z M62.6,30.3l-15-14.2c-0.2-0.2-0.6-0.2-0.9,0l-3.9,3.7l10,9.5
				C53.6,30,54,31,54,32v1.2c0,1.5-1.3,2.8-2.8,2.8H50v10h9.8V32.8h2.5c0.3,0,0.6-0.3,0.6-0.6v-0.9C63,30.9,62.8,30.6,62.6,30.3z
				 M52,33.2V32c0-0.5-0.2-0.9-0.5-1.2L32.5,12.9c-0.3-0.3-0.8-0.3-1.1,0L12.5,30.8C12.2,31.1,12,31.5,12,32v1.2
				c0,0.4,0.4,0.8,0.8,0.8H16v16.9h32V34h3.2C51.6,34,52,33.6,52,33.2z M39.7,37c-1.6,1.7-5,4.4-8,5.7c-9.3,5.1-12-1.5-6.9-7.7
				c3.7,0.1,5.7,1.8,6.3,2c0.1-0.1,0.1-0.2-0.2-0.5c-0.3-0.4-1.5-2-4.4-3.2c0.8-0.7,1.6-1.4,2.5-2c3.9,0,6.2,1.7,6.7,2
				c0.1-0.1,0.1-0.3-0.2-0.6C35,32.4,34,31,31.4,29.8c4-1.9,8-2.1,9.9,0.2C42.9,31.8,42.1,34.4,39.7,37z"/>
		</g>
	</g>
</g>
</svg>
